public/icons/dataIntegration.svg

<svg width="89" height="89" viewBox="0 0 89 89" fill="none" xmlns="http://www.w3.org/2000/svg">
<path d="M44.4981 0C35.205 0 26.4942 3.05515 19.3074 8.82902C18.5101 9.47056 18.3834 10.6282 19.025 11.4292C19.6665 12.2265 20.8241 12.3495 21.6251 11.7117C28.1481 6.4755 36.0579 3.70833 44.4981 3.70833C59.3759 3.70833 72.7222 12.6125 78.5179 26.1177L72.8757 22.8584C71.9894 22.3429 70.8524 22.6492 70.3407 23.5392C69.8289 24.4292 70.1352 25.5625 71.0215 26.0742L80.6545 31.6367C80.9475 31.8073 81.2664 31.883 81.5816 31.883C82.2195 31.883 82.8447 31.5492 83.1895 30.9559L88.7521 21.3229C89.2638 20.4329 88.9575 19.2997 88.0712 18.7879C87.1812 18.2725 86.048 18.5825 85.5362 19.4688L82.1755 25.2775C75.9428 10.0776 61.0916 0 44.4981 0ZM12.854 15.2389C12.6152 15.2049 12.371 15.213 12.1225 15.2751L1.37408 18.1578C0.383949 18.4248 -0.200174 19.4347 0.0631183 20.4248C0.326411 21.4149 1.34742 21.9842 2.33014 21.7358L9.60922 19.7874C5.75467 26.091 3.70628 33.2979 3.70628 40.7917C3.70628 58.0725 14.6384 73.5115 30.9033 79.2149C31.1072 79.2854 31.3149 79.3236 31.5189 79.3236C32.2865 79.3236 33.0047 78.8417 33.2717 78.0778C33.6091 77.1099 33.0987 76.0541 32.1345 75.7166C17.3494 70.5361 7.41463 56.5002 7.41463 40.7917C7.41463 34.3701 9.06505 28.174 12.1877 22.6846L13.687 28.2978C13.9095 29.1247 14.6564 29.6667 15.4759 29.6667C15.6354 29.6667 15.798 29.6423 15.9612 29.6015C16.9476 29.3345 17.5319 28.3211 17.2649 27.3272L14.3895 16.5861C14.192 15.8463 13.5704 15.341 12.854 15.2389ZM44.4981 22.25C35.5684 22.25 25.9564 24.5714 25.9564 29.6667V51.9167C25.9564 57.0119 35.5684 59.3333 44.4981 59.3333C53.4278 59.3333 63.0399 57.0119 63.0399 51.9167V29.6667C63.0399 24.5714 53.4278 22.25 44.4981 22.25ZM44.4981 25.9583C54.2325 25.9583 59.3315 28.7136 59.3315 29.6667C59.3315 30.6197 54.2325 33.375 44.4981 33.375C34.7637 33.375 29.6647 30.6197 29.6647 29.6667C29.6647 28.7136 34.7637 25.9583 44.4981 25.9583ZM29.6647 34.3383C33.2783 36.1984 39.0081 37.0833 44.4981 37.0833C49.9882 37.0833 55.718 36.1984 59.3315 34.3383V40.7917C59.3315 41.7447 54.2325 44.5 44.4981 44.5C34.7637 44.5 29.6647 41.7447 29.6647 40.7917V34.3383ZM83.4358 38.9375C82.4123 38.9375 81.5816 39.7682 81.5816 40.7917C81.5816 60.3084 66.4178 76.3169 47.2577 77.7374L51.3716 73.6235C52.0947 72.9003 52.0947 71.7247 51.3716 71.0015C50.6485 70.2784 49.4728 70.2784 48.7497 71.0015L41.333 78.4182C40.6099 79.1413 40.6099 80.317 41.333 81.0401L48.7497 88.4568C49.1131 88.8165 49.586 89 50.0606 89C50.5353 89 51.0119 88.8202 51.3716 88.4568C52.0947 87.7337 52.0947 86.558 51.3716 85.8349L46.9969 81.4602C68.3231 80.1583 85.29 62.4393 85.29 40.7917C85.29 39.7682 84.4593 38.9375 83.4358 38.9375ZM29.6647 45.4633C33.2783 47.3234 39.0081 48.2083 44.4981 48.2083C49.9882 48.2083 55.718 47.3234 59.3315 45.4633V51.9167C59.3315 52.8697 54.2325 55.625 44.4981 55.625C34.7637 55.625 29.6647 52.8697 29.6647 51.9167V45.4633Z" fill="#FBFBFB" fill-opacity="0.8"/>
</svg>

<svg xmlns="http://www.w3.org/2000/svg" fill="none" width="89" height="89" viewBox="0 0 89 89"><path d="M44.498 0c-9.293 0-18.004 3.055-25.19 8.829a1.85 1.85 0 0 0 2.318 2.883c6.522-5.236 14.432-8.004 22.872-8.004 14.878 0 28.224 8.905 34.02 22.41l-5.642-3.26a1.857 1.857 0 0 0-1.854 3.216l9.633 5.563a1.862 1.862 0 0 0 2.535-.68l5.562-9.634a1.857 1.857 0 0 0-.68-2.535 1.854 1.854 0 0 0-2.536.68l-3.36 5.81C75.942 10.078 61.091 0 44.498 0zM12.854 15.239a1.89 1.89 0 0 0-.731.036l-10.75 2.883a1.851 1.851 0 0 0-1.31 2.267c.262.99 1.283 1.56 2.266 1.31l7.28-1.948a40.102 40.102 0 0 0-5.904 21.005c0 17.28 10.932 32.72 27.197 38.423.204.07.412.109.616.109a1.86 1.86 0 0 0 1.753-1.246 1.854 1.854 0 0 0-1.137-2.361C17.349 70.537 7.415 56.5 7.415 40.792a36.49 36.49 0 0 1 4.773-18.107l1.499 5.613a1.85 1.85 0 0 0 2.274 1.304 1.853 1.853 0 0 0 1.304-2.275l-2.876-10.74a1.847 1.847 0 0 0-1.535-1.348zm31.644 7.011c-8.93 0-18.542 2.321-18.542 7.417v22.25c0 5.095 9.612 7.416 18.542 7.416 8.93 0 18.542-2.321 18.542-7.416v-22.25c0-5.096-9.612-7.417-18.542-7.417zm0 3.708c9.735 0 14.834 2.756 14.834 3.709 0 .953-5.1 3.708-14.834 3.708s-14.833-2.755-14.833-3.708c0-.953 5.099-3.709 14.833-3.709zm-14.833 8.38c3.613 1.86 9.343 2.745 14.833 2.745s11.22-.885 14.834-2.745v6.454c0 .953-5.1 3.708-14.834 3.708s-14.833-2.755-14.833-3.708v-6.454zm53.77 4.6c-1.023 0-1.853.83-1.853 1.854 0 19.516-15.164 35.525-34.324 36.945l4.114-4.113a1.856 1.856 0 0 0 0-2.623 1.856 1.856 0 0 0-2.622 0l-7.417 7.417a1.856 1.856 0 0 0 0 2.622l7.417 7.417c.363.36.836.543 1.31.543a1.856 1.856 0 0 0 1.311-3.165l-4.374-4.375C68.323 80.158 85.29 62.44 85.29 40.792c0-1.024-.83-1.855-1.854-1.855zm-53.77 6.525c3.613 1.86 9.343 2.745 14.833 2.745s11.22-.885 14.834-2.745v6.454c0 .953-5.1 3.708-14.834 3.708s-14.833-2.755-14.833-3.708v-6.454z" fill="#FBFBFB" fill-opacity=".8"/></svg>
